src/22/mimetypes/text-css.svg

<?xml version="1.0" encoding="UTF-8" standalone="no"?>
<!-- Created with Inkscape (http://www.inkscape.org/) -->

<svg
   xmlns:dc="http://purl.org/dc/elements/1.1/"
   xmlns:cc="http://creativecommons.org/ns#"
   xmlns:rdf="http://www.w3.org/1999/02/22-rdf-syntax-ns#"
   xmlns:svg="http://www.w3.org/2000/svg"
   xmlns="http://www.w3.org/2000/svg"
   xmlns:sodipodi="http://sodipodi.sourceforge.net/DTD/sodipodi-0.dtd"
   xmlns:inkscape="http://www.inkscape.org/namespaces/inkscape"
   width="22"
   version="1.1"
   height="22"
   id="svg2"
   inkscape:version="0.91 r13725"
   sodipodi:docname="text-css.svg">
  <sodipodi:namedview
     pagecolor="#ffffff"
     bordercolor="#666666"
     borderopacity="1"
     objecttolerance="10"
     gridtolerance="10"
     guidetolerance="10"
     inkscape:pageopacity="0"
     inkscape:pageshadow="2"
     inkscape:window-width="910"
     inkscape:window-height="480"
     id="namedview11"
     showgrid="true"
     inkscape:zoom="21.454545"
     inkscape:cx="1.2433819"
     inkscape:cy="7.6044157"
     inkscape:window-x="0"
     inkscape:window-y="0"
     inkscape:window-maximized="0"
     inkscape:current-layer="layer1">
    <inkscape:grid
       type="xygrid"
       id="grid4134" />
  </sodipodi:namedview>
  <defs
     id="defs3871" />
  <metadata
     id="metadata3874">
    <rdf:RDF>
      <cc:Work
         rdf:about="">
        <dc:format>image/svg+xml</dc:format>
        <dc:type
           rdf:resource="http://purl.org/dc/dcmitype/StillImage" />
      </cc:Work>
    </rdf:RDF>
  </metadata>
  <g
     inkscape:label="Capa 1"
     inkscape:groupmode="layer"
     id="layer1"
     transform="matrix(1 0 0 1 -326 -534.3622)">
    <path
       style="font-style:normal;font-variant:normal;font-weight:normal;font-stretch:normal;font-size:medium;line-height:125%;font-family:oxygen;-inkscape-font-specification:oxygen;letter-spacing:0px;word-spacing:0px;fill:#f9d24c;fill-opacity:1;stroke:none"
       d="M 10 3.0019531 C 8.2578 3.0146531 7.5234375 3.7227156 7.5234375 5.5097656 L 7.5234375 7.9511719 C 7.5234375 9.0649719 7.4892425 10.355469 6.5078125 10.355469 L 6 10.355469 L 6 11.644531 L 6.5078125 11.644531 C 7.4892925 11.644531 7.5234375 12.935018 7.5234375 14.048828 L 7.5234375 16.490234 C 7.5234375 18.277284 8.2578 18.985327 10 18.998047 L 10 17.814453 C 8.86505 17.800853 8.84375 17.313309 8.84375 15.605469 L 8.84375 13.589844 C 8.84375 12.758944 8.639045 11.522466 7.640625 11.009766 C 8.639045 10.497066 8.84375 9.2587344 8.84375 8.4277344 L 8.84375 6.3945312 C 8.84375 4.6866912 8.86505 4.1991769 10 4.1855469 L 10 3.0019531 z M 12 3.0039062 L 12 4.1875 C 13.11854 4.2059 13.15625 4.6953512 13.15625 6.3945312 L 13.15625 8.4277344 C 13.15625 9.2587344 13.360955 10.497066 14.359375 11.009766 C 13.360955 11.522466 13.15625 12.758944 13.15625 13.589844 L 13.15625 15.605469 C 13.15625 17.304659 13.11855 17.79413 12 17.8125 L 12 18.996094 C 13.73058 18.978994 14.476562 18.271574 14.476562 16.490234 L 14.476562 14.048828 C 14.476562 12.935028 14.545156 11.644531 15.509766 11.644531 L 16 11.644531 L 16 10.355469 L 15.509766 10.355469 C 14.545196 10.355469 14.476562 9.0649719 14.476562 7.9511719 L 14.476562 5.5097656 C 14.476562 3.7284256 13.73058 3.0210362 12 3.0039062 z M 4 18 L 4 19 L 5 19 L 5 18 L 4 18 z "
       transform="translate(326,534.3622)"
       id="path4121" />
  </g>
</svg>

<svg xmlns="http://www.w3.org/2000/svg" width="22" height="22"><path style="line-height:125%;-inkscape-font-specification:oxygen" d="M10 3.002c-1.742.013-2.477.72-2.477 2.508V7.95c0 1.114-.034 2.404-1.015 2.404H6v1.29h.508c.981 0 1.015 1.29 1.015 2.404v2.441c0 1.787.735 2.495 2.477 2.508v-1.184c-1.135-.013-1.156-.5-1.156-2.209V13.59c0-.831-.205-2.068-1.203-2.58.998-.513 1.203-1.751 1.203-2.582V6.395c0-1.708.021-2.196 1.156-2.21V3.003zm2 .002v1.183c1.119.019 1.156.508 1.156 2.208v2.033c0 .83.205 2.07 1.203 2.582-.998.512-1.203 1.749-1.203 2.58v2.015c0 1.7-.037 2.19-1.156 2.207v1.184c1.73-.017 2.477-.724 2.477-2.506V14.05c0-1.114.068-2.404 1.033-2.404H16v-1.29h-.49c-.965 0-1.033-1.29-1.033-2.404V5.51c0-1.782-.746-2.489-2.477-2.506zM4 18v1h1v-1H4z" font-weight="400" font-family="oxygen" letter-spacing="0" word-spacing="0" fill="#f9d24c"/></svg>
